X: 1
T:no name
R:reel
Z:id:hn-reel-508
M:C|
K:D
D3d cAAB|cded cAGE|D3d cAAB|cAGE EDDE|
(3EFG AB =c2AB|^cded cAAg|faec dcAB|cAGE EDD2:|
|:~d3e ~f3g|afge dcAG|Adde f2ed|cAGE EDD2|
dcde fefg|afge defg|afge fded|cAGE EDD2:|
